static/icons/Manchu.svg

<svg height="50" viewBox="0 0 13.229166 13.229167" width="50" xmlns="http://www.w3.org/2000/svg"><path d="m33.535156 2.2988281-1.208984.5527344.65625 2.6796875-.730469 5.455078c-2.690048.544517-4.453208.860559-5.462891.990234l.140626-3.9433589-.169922-.1542969c-.453063-.4118551-1.096068-.7607091-1.919922-1.0859374-.0027-.0012473-.005129.0012472-.007813 0-.800768-.3635906-1.433319-.5742188-1.992187-.5742188-.404384 0-.805457.1183256-1.078125.40625-.27267.2876221-.376953.6866582-.376953 1.0996094v.2128906l.103515.1328125c.766032 1.0312063 1.266872 2.6950245 1.595703 4.7031255-2.93788.347338-4.775329.63416-5.648437.966796l-.199219.082032-.279297.693359.125.212891c.545608.923338 1.545731 1.404296 2.753907 1.404296.519144 0 1.282118-.12826 2.419921-.376953.560408-.122456.997032-.221155 1.306641-.28125.042599-.007559.026755-.008066.066406-.015625.050619.283843.10626.595982.185547 1.335938.10681.961398.249762 1.925698.427735 2.886719.179493.969259.376293 1.71268.613281 2.265625l.132812.302734h.332031c.293723 0 .549154-.030079.796876-.169922.23077-.131905.382748-.430633.40625-.701172.005782.018898.015966.030372.021484.050782v.007812c.017461.060472.059611.098613.074219.162109l.214843 2.222657-9.072265 1.742187c-.65007-.24189-1.250909-.414062-1.779297-.414062-.246418 0-.480816.033983-.701172.162109-.220354.128504-.393977.384674-.429688.634766l-.021484.148437.066406.140625c.746928 1.595717 1.115235 3.149988 1.115235 4.6875 0 .057449-.033976.415925-.103516.9375-.069551.521613-.178018 1.242108-.318359 2.154297-.282822 1.804838-.427735 3.286359-.427735 4.451172 0 1.038538.107968 1.837868.376953 2.451172.268986.613266.817791 1.05664 1.447266 1.05664h.212891l.820312-.886718.029297-.050782c.448418-.778847.649613-2.123064.81836-4.28125.164632-2.105537.240179-4.998281.24414-8.570312l.074219-.074219c1.701513-.58919 4.368361-.988291 7.683594-1.240234v.892578c0 1.821808-.032201 3.306806-.101563 4.451172-.043619.719697-.102494.967411-.15625 1.351562l-.162109-.8125-.007813-.148437-.140625-.132813c-1.307995-1.30628-3.358664-2.521013-6.169922-3.695312l-.310547-.125-.435546.435547v.205078c0 .483099.231103.934546.589843 1.373047l.015625.023437 1.261719 1.166016c-.105339 1.178608-.755801 2.620272-2.177734 4.339843l-.109375.140626v1.0625l.597656-.125c.771401-.16252 1.543491-.578925 2.324219-1.210938l.015625-.015625 1.96289-1.824219c.662303.614551 1.260399 1.159963 1.675782 1.402344l.222656.132812.228516-.103515c.193583-.086173.183986-.347323.308593-.515625-.012623.047622-.031218.09924-.042969.146484-.079838.31937-.125.645827-.125.96875 0 1.061821.247929 2.189429.722657 3.394532v.015624l.007812.00586c.261876.598564.545024 1.070403.892578 1.417969.347554.347716.791289.568359 1.25586.568359h.175781l.132812-.111328c.771916-.627213 1.033204-1.769955 1.033204-3.34375v-11.876953c4.564546-.510501 7.76584-.804688 9.042968-.804688.310942 0 .442084.073031.488282.119141l.021484.015625.015625.015625c.000998.000869.220779.369253.353516 1.033203.129259.613909.223116 1.562875.257812 2.8125v.007813.005859c.06943 1.249587.103516 2.987602.103516 5.197265 0 2.61464-.190108 4.412447-.494141 5.263672h-.007812v.007813c-.134476.403464-.318652.660855-.539063.826172-.220422.165165-.493467.257812-.884765.257812-.125481 0-.615857-.053383-1.328126-.154297h-.023437c-.730718-.138708-1.21418-.214843-1.550781-.214843-.307261 0-.573873.156287-.773438.355468l-.214844.220703.095704.289063c.077529.232441.154753.294776.28125.457031.126493.162142.296674.36285.515625.613282.437899.500447 1.070019 1.185096 1.898437 2.066406.848022.901039 1.521484 1.586935 2.03711 2.066406.257801.239622.477542.43444.664062.576172s.30773.246419.560547.302734l.207031.044922.177734-.11914c.160026-.106583.283486-.192427.376954-.257813.081524-.057071.122192-.082108.199218-.154297 1.059073-.929839 1.639218-2.847566 2.066407-5.83789.424497-2.971427.706396-6.113846.847656-9.433594.070223-1.650293.140057-2.947784.201172-3.890625.060056-.926854.128093-1.52817.162109-1.697266.066406-.139842.151812-.336776.339844-.775391.10885-.253984.190208-.471089.25-.65039.059754-.17915.103516-.306514.103516-.501953v-.207031l-.148438-.148438c-.240378-.240378-.516387-.45669-.826172-.650391l-.021484-.005859-3.240235-1.59375h-.111328c-.302173 0-.542832.011225-.759765.066406l-5.056641.833985h-.015625c-.066259.003099-.120387.002333-.228516.013671-.146566.015119-.345944.030248-.597656.058594-.503422.052914-1.223865.138692-2.15625.244141l.007813-.005859c-.913652.088062-1.608055.153423-2.089844.197265-.07601.007559-.110566.008066-.175781.015625l.058593-.441406c.16266-.691314.090269-1.362253-.302734-1.853516l-.052734-.052734-.640625-.449219c.635034-.116409 1.28779-.254863 1.880859-.318359.982156-.105071 1.701989-.178497 2.148437-.212891.544589-.038929 1.008891-.154959 1.388672-.392578l.236328-.146484v-.40625l-.230468-.685547-.810547-.671875 1.195312-4.083985.560547-.101562 2.857422-.15625c2.465424-.070299 4.04648-.167746 4.871094-.324219.440852-.080126.815536-.212787 1.107422-.464844.291893-.252094.464844-.641454.464844-1.027343v-.169922l-.101563-.138672c-.459606-.58492-1.145434-1.011902-2.007813-1.3144532-.847562-.3314646-1.603146-.5097657-2.289062-.5097657h-.421875l-3.955078.7460939c.147738-.4341167.353987-1.0315875.626953-1.8164064v-.0078125c.298492-.8254488.527428-1.4725947.679688-1.9472656.076391-.2381102.128759-.4343796.169921-.5917969.041159-.1572283.072266-.2490494.072266-.4199218v-.1699219l-.095703-.1328125c-1.048486-1.3881449-2.437357-2.2760218-4.095703-2.6152344zm-22.513672 3.9179688v.0019531c-.434957 0-.843902.1198163-1.1816402.3613281l.5449222.2792969c-.087691.0378855-.178574.0698068-.25586.125 0 .0006307-.000001.0013223 0 .0019531h-.5019529v.9667969l.3320313-.2363281c.1485736.4323401.2151686.8693704.5820316 1.2851562l.015625.0234375 1.970703 1.8593754-.007813-.015625c.696913.696945 1.290521 1.225208 1.800781 1.59375.510262.368504.916134.613281 1.396485.613281.299429 0 .607885-.1125.833984-.310547.226099-.197669.371085-.458991.478516-.759766l.015625-.03125.177734-.767578v-.265625c0-1.2083903-.309865-2.2063279-.990234-2.8867185-.460488-.4604598-1.227974-.7784895-2.414063-1.1738281-1.177462-.4272-2.085097-.6640625-2.796875-.6640625zm20.587891 7.7597651-.554687 3.09375-4.044922.94336-.125-3.277344c1.886008-.378406 3.432927-.614783 4.724609-.759766zm-25.5410156 1.63086c-.5279615 0-1.0258728.053134-1.4921875.169922l-.3828125.095703v.392578c0 .371906.0611973.767368.1757812 1.1875l.03125.103516.0664063.082031c2.0605209 2.486816 3.6224246 3.951983 4.9824219 4.376953l.0214843.007813.0292969.007812c.772257.16252 1.518774-.007553 1.927734-.568359l.066407-.087891.191406-.996094v-.36914c0-.985588-.340267-1.850509-1.003906-2.472657l-.029297-.023437-.560547-.398438-.015625-.007812c-1.4313855-.896958-2.474876-1.410803-3.3222658-1.5h-.0292968-.2871094zm7.6171876 8.474609-.560547.074219c-.431382.054047-.814474.334093-1.048828.708984l-.013672.023438-4.8867188 10.15039-.015625.066407c.0170079-.08504-.0185573.039091-.1328124.191406-.1142438.152315-.2925733.365484-.53125.621094-.5067795.543042-.811635.856922-.953125 1.28125l-.0507813.15039.0449219.148438c.3315326 1.178759.8642796 2.315945 1.59375 3.410156v.005859l.0078125.015626c.7825421 1.080642 1.6235319 1.734374 2.5683593 1.734374.3652078 0 .7594308-.186729.9531248-.509765l.072266-.117188v-.140625c0-1.174715.488248-4.175056 1.470703-8.80664.492758-2.340586.857932-4.18932 1.105469-5.550782.247536-1.361461.376953-2.19161.376953-2.671874zm18.427734 3.382813.292969.455078h-.996094v.326172l.244141.109375c.142813.601512.380447 1.187077 1.009765 1.816406v.007813h.007813c.36607.348472.642598.628388.826172.820312.027893.030236.03711.041083.060547.066406-.27936.816-1.193448 2.036698-2.982422 3.59375l-.169922.15625v.988282h.501953c1.455522 0 3.017093-1.11302 4.6875-2.730469.293477.306897.687828.731283 1.373047 1.505859v.007813h.007812c.857518.92897 1.573499 1.598656 2.191407 2.023437l.148437.103516.175782-.015625c.369033-.030236.716284-.2861.878906-.611328.162633-.325418.214843-.704546.214844-1.152344 0-1.475528-.94264-2.838567-2.621094-4.082031-1.621384-1.261036-3.571505-2.39098-5.851563-3.388672z" fill="#ae4f4f" transform="scale(.26458333)"/></svg>

<?xml version="1.0" encoding="UTF-8" standalone="no"?>
<svg
   xmlns:dc="http://purl.org/dc/elements/1.1/"
   xmlns:cc="http://creativecommons.org/ns#"
   xmlns:rdf="http://www.w3.org/1999/02/22-rdf-syntax-ns#"
   xmlns:svg="http://www.w3.org/2000/svg"
   xmlns="http://www.w3.org/2000/svg"
   xmlns:sodipodi="http://sodipodi.sourceforge.net/DTD/sodipodi-0.dtd"
   xmlns:inkscape="http://www.inkscape.org/namespaces/inkscape"
   inkscape:version="1.0.1 (3bc2e813f5, 2020-09-07)"
   sodipodi:docname="Manchu.svg"
   id="svg1579"
   version="1.1"
   viewBox="0 0 13.229166 13.229167"
   height="50"
   width="50">
  <defs
     id="defs1573">
    <inkscape:path-effect
       oposite_fuse="false"
       fuse_paths="true"
       discard_orig_path="false"
       mode="free"
       is_visible="true"
       id="path-effect7365"
       center_point="-15.691712,-20.462002"
       end_point="-15.691712,4.437998"
       start_point="-15.691712,-45.362002"
       effect="mirror_symmetry" />
    <inkscape:path-effect
       oposite_fuse="false"
       fuse_paths="true"
       discard_orig_path="false"
       mode="free"
       is_visible="true"
       id="path-effect4547-0"
       center_point="275.14301,224.09666"
       end_point="275.14301,350.07326"
       start_point="275.14301,98.12006"
       effect="mirror_symmetry" />
    <inkscape:path-effect
       oposite_fuse="false"
       fuse_paths="false"
       discard_orig_path="false"
       mode="free"
       is_visible="true"
       id="path-effect4551-7"
       center_point="274.67636,329.54996"
       end_point="274.67636,418.88419"
       start_point="274.67636,240.21573"
       effect="mirror_symmetry" />
    <inkscape:path-effect
       oposite_fuse="false"
       fuse_paths="false"
       discard_orig_path="false"
       mode="free"
       is_visible="true"
       id="path-effect4557-0"
       center_point="273.50283,404.61159"
       end_point="273.50283,477.30227"
       start_point="273.50283,331.92091"
       effect="mirror_symmetry" />
    <inkscape:path-effect
       oposite_fuse="false"
       fuse_paths="false"
       discard_orig_path="false"
       mode="free"
       is_visible="true"
       id="path-effect4669"
       center_point="315.71788,93.192596"
       end_point="315.71788,96.192596"
       start_point="315.71788,90.192596"
       effect="mirror_symmetry" />
    <inkscape:path-effect
       effect="mirror_symmetry"
       start_point="316.91112,90.060013"
       end_point="316.91112,96.060013"
       center_point="316.91112,93.060013"
       id="path-effect4802"
       is_visible="true"
       mode="free"
       discard_orig_path="false"
       fuse_paths="false"
       oposite_fuse="false" />
  </defs>
  <sodipodi:namedview
     inkscape:document-rotation="0"
     inkscape:window-maximized="1"
     inkscape:window-y="-12"
     inkscape:window-x="-12"
     inkscape:window-height="2050"
     inkscape:window-width="3840"
     showguides="true"
     units="px"
     showgrid="false"
     inkscape:current-layer="layer1"
     inkscape:document-units="px"
     inkscape:cy="11.908024"
     inkscape:cx="40.267993"
     inkscape:zoom="7.9999999"
     inkscape:pageshadow="2"
     inkscape:pageopacity="0.0"
     borderopacity="1.0"
     bordercolor="#666666"
     pagecolor="#ffffff"
     id="base" />
  <metadata
     id="metadata1576">
    <rdf:RDF>
      <cc:Work
         rdf:about="">
        <dc:format>image/svg+xml</dc:format>
        <dc:type
           rdf:resource="http://purl.org/dc/dcmitype/StillImage" />
        <dc:title></dc:title>
      </cc:Work>
    </rdf:RDF>
  </metadata>
  <g
     transform="translate(0,-283.77082)"
     id="layer1"
     inkscape:groupmode="layer"
     inkscape:label="Layer 1">
    <path
       transform="matrix(0.26458333,0,0,0.26458333,0,283.77082)"
       d="M 33.535156 2.2988281 L 32.326172 2.8515625 L 32.982422 5.53125 L 32.251953 10.986328 C 29.561905 11.530845 27.798745 11.846887 26.789062 11.976562 L 26.929688 8.0332031 L 26.759766 7.8789062 C 26.306703 7.4670511 25.663698 7.1181971 24.839844 6.7929688 C 24.837144 6.7917215 24.834715 6.794216 24.832031 6.7929688 C 24.031263 6.4293782 23.398712 6.21875 22.839844 6.21875 C 22.43546 6.21875 22.034387 6.3370756 21.761719 6.625 C 21.489049 6.9126221 21.384766 7.3116582 21.384766 7.7246094 L 21.384766 7.9375 L 21.488281 8.0703125 C 22.254313 9.1015188 22.755153 10.765337 23.083984 12.773438 C 20.146104 13.120776 18.308655 13.407598 17.435547 13.740234 L 17.236328 13.822266 L 16.957031 14.515625 L 17.082031 14.728516 C 17.627639 15.651854 18.627762 16.132812 19.835938 16.132812 C 20.355082 16.132812 21.118056 16.004552 22.255859 15.755859 C 22.816267 15.633403 23.252891 15.534704 23.5625 15.474609 C 23.605099 15.46705 23.589255 15.466543 23.628906 15.458984 C 23.679525 15.742827 23.735166 16.054966 23.814453 16.794922 C 23.921263 17.75632 24.064215 18.72062 24.242188 19.681641 C 24.421681 20.6509 24.618481 21.394321 24.855469 21.947266 L 24.988281 22.25 L 25.320312 22.25 C 25.614035 22.25 25.869466 22.219921 26.117188 22.080078 C 26.347958 21.948173 26.499936 21.649445 26.523438 21.378906 C 26.52922 21.397804 26.539404 21.409278 26.544922 21.429688 L 26.544922 21.4375 C 26.562383 21.497972 26.604533 21.536113 26.619141 21.599609 L 26.833984 23.822266 L 17.761719 25.564453 C 17.111649 25.322563 16.51081 25.150391 15.982422 25.150391 C 15.736004 25.150391 15.501606 25.184374 15.28125 25.3125 C 15.060896 25.441004 14.887273 25.697174 14.851562 25.947266 L 14.830078 26.095703 L 14.896484 26.236328 C 15.643412 27.832045 16.011719 29.386316 16.011719 30.923828 C 16.011719 30.981277 15.977743 31.339753 15.908203 31.861328 C 15.838652 32.382941 15.730185 33.103436 15.589844 34.015625 C 15.307022 35.820463 15.162109 37.301984 15.162109 38.466797 C 15.162109 39.505335 15.270077 40.304665 15.539062 40.917969 C 15.808048 41.531235 16.356853 41.974609 16.986328 41.974609 L 17.199219 41.974609 L 18.019531 41.087891 L 18.048828 41.037109 C 18.497246 40.258262 18.698441 38.914045 18.867188 36.755859 C 19.03182 34.650322 19.107367 31.757578 19.111328 28.185547 L 19.185547 28.111328 C 20.88706 27.522138 23.553908 27.123037 26.869141 26.871094 L 26.869141 27.763672 C 26.869141 29.58548 26.83694 31.070478 26.767578 32.214844 C 26.723959 32.934541 26.665084 33.182255 26.611328 33.566406 L 26.449219 32.753906 L 26.441406 32.605469 L 26.300781 32.472656 C 24.992786 31.166376 22.942117 29.951643 20.130859 28.777344 L 19.820312 28.652344 L 19.384766 29.087891 L 19.384766 29.292969 C 19.384766 29.776068 19.615869 30.227515 19.974609 30.666016 L 19.990234 30.689453 L 21.251953 31.855469 C 21.146614 33.034077 20.496152 34.475741 19.074219 36.195312 L 18.964844 36.335938 L 18.964844 37.398438 L 19.5625 37.273438 C 20.333901 37.110918 21.105991 36.694513 21.886719 36.0625 L 21.902344 36.046875 L 23.865234 34.222656 C 24.527537 34.837207 25.125633 35.382619 25.541016 35.625 L 25.763672 35.757812 L 25.992188 35.654297 C 26.185771 35.568124 26.176174 35.306974 26.300781 35.138672 C 26.288158 35.186294 26.269563 35.237912 26.257812 35.285156 C 26.177974 35.604526 26.132812 35.930983 26.132812 36.253906 C 26.132812 37.315727 26.380741 38.443335 26.855469 39.648438 L 26.855469 39.664062 L 26.863281 39.669922 C 27.125157 40.268486 27.408305 40.740325 27.755859 41.087891 C 28.103413 41.435607 28.547148 41.65625 29.011719 41.65625 L 29.1875 41.65625 L 29.320312 41.544922 C 30.092228 40.917709 30.353516 39.774967 30.353516 38.201172 L 30.353516 26.324219 C 34.918062 25.813718 38.119356 25.519531 39.396484 25.519531 C 39.707426 25.519531 39.838568 25.592562 39.884766 25.638672 L 39.90625 25.654297 L 39.921875 25.669922 C 39.922873 25.670791 40.142654 26.039175 40.275391 26.703125 C 40.40465 27.317034 40.498507 28.266 40.533203 29.515625 L 40.533203 29.523438 L 40.533203 29.529297 C 40.602633 30.778884 40.636719 32.516899 40.636719 34.726562 C 40.636719 37.341202 40.446611 39.139009 40.142578 39.990234 L 40.134766 39.990234 L 40.134766 39.998047 C 40.00029 40.401511 39.816114 40.658902 39.595703 40.824219 C 39.375281 40.989384 39.102236 41.082031 38.710938 41.082031 C 38.585457 41.082031 38.095081 41.028648 37.382812 40.927734 L 37.359375 40.927734 C 36.628657 40.789026 36.145195 40.712891 35.808594 40.712891 C 35.501333 40.712891 35.234721 40.869178 35.035156 41.068359 L 34.820312 41.289062 L 34.916016 41.578125 C 34.993545 41.810566 35.070769 41.872901 35.197266 42.035156 C 35.323759 42.197298 35.49394 42.398006 35.712891 42.648438 C 36.15079 43.148885 36.78291 43.833534 37.611328 44.714844 C 38.45935 45.615883 39.132812 46.301779 39.648438 46.78125 C 39.906239 47.020872 40.12598 47.21569 40.3125 47.357422 C 40.49902 47.499154 40.62023 47.603841 40.873047 47.660156 L 41.080078 47.705078 L 41.257812 47.585938 C 41.417838 47.479355 41.541298 47.393511 41.634766 47.328125 C 41.71629 47.271054 41.756958 47.246017 41.833984 47.173828 C 42.893057 46.243989 43.473202 44.326262 43.900391 41.335938 C 44.324888 38.364511 44.606787 35.222092 44.748047 31.902344 C 44.81827 30.252051 44.888104 28.95456 44.949219 28.011719 C 45.009275 27.084865 45.077312 26.483549 45.111328 26.314453 C 45.177734 26.174611 45.26314 25.977677 45.451172 25.539062 C 45.560022 25.285078 45.64138 25.067973 45.701172 24.888672 C 45.760926 24.709522 45.804688 24.582158 45.804688 24.386719 L 45.804688 24.179688 L 45.65625 24.03125 C 45.415872 23.790872 45.139863 23.57456 44.830078 23.380859 L 44.808594 23.375 L 41.568359 21.78125 L 41.457031 21.78125 C 41.154858 21.78125 40.914199 21.792475 40.697266 21.847656 L 35.640625 22.681641 L 35.625 22.681641 C 35.558741 22.68474 35.504613 22.683974 35.396484 22.695312 C 35.249918 22.710431 35.05054 22.72556 34.798828 22.753906 C 34.295406 22.80682 33.574963 22.892598 32.642578 22.998047 L 32.650391 22.992188 C 31.736739 23.08025 31.042336 23.145611 30.560547 23.189453 C 30.484537 23.197012 30.449981 23.197519 30.384766 23.205078 L 30.443359 22.763672 C 30.606019 22.072358 30.533628 21.401419 30.140625 20.910156 L 30.087891 20.857422 L 29.447266 20.408203 C 30.0823 20.291794 30.735056 20.15334 31.328125 20.089844 C 32.310281 19.984773 33.030114 19.911347 33.476562 19.876953 C 34.021151 19.838024 34.485453 19.721994 34.865234 19.484375 L 35.101562 19.337891 L 35.101562 18.931641 L 34.871094 18.246094 L 34.060547 17.574219 L 35.255859 13.490234 L 35.816406 13.388672 L 38.673828 13.232422 C 41.139252 13.162123 42.720308 13.064676 43.544922 12.908203 C 43.985774 12.828077 44.360458 12.695416 44.652344 12.443359 C 44.944237 12.191265 45.117188 11.801905 45.117188 11.416016 L 45.117188 11.246094 L 45.015625 11.107422 C 44.556019 10.522502 43.870191 10.09552 43.007812 9.7929688 C 42.16025 9.4615042 41.404666 9.2832031 40.71875 9.2832031 L 40.296875 9.2832031 L 36.341797 10.029297 C 36.489535 9.5951803 36.695784 8.9977095 36.96875 8.2128906 L 36.96875 8.2050781 C 37.267242 7.3796293 37.496178 6.7324834 37.648438 6.2578125 C 37.724829 6.0197023 37.777197 5.8234329 37.818359 5.6660156 C 37.859518 5.5087873 37.890625 5.4169662 37.890625 5.2460938 L 37.890625 5.0761719 L 37.794922 4.9433594 C 36.746436 3.5552145 35.357565 2.6673376 33.699219 2.328125 L 33.535156 2.2988281 z M 11.021484 6.2167969 L 11.021484 6.21875 C 10.586527 6.21875 10.177582 6.3385663 9.8398438 6.5800781 L 10.384766 6.859375 C 10.297075 6.8972605 10.206192 6.9291818 10.128906 6.984375 C 10.128906 6.9850057 10.128905 6.9856973 10.128906 6.9863281 L 9.6269531 6.9863281 L 9.6269531 7.953125 L 9.9589844 7.7167969 C 10.107558 8.149137 10.174153 8.5861673 10.541016 9.0019531 L 10.556641 9.0253906 L 12.527344 10.884766 L 12.519531 10.869141 C 13.216444 11.566086 13.810052 12.094349 14.320312 12.462891 C 14.830574 12.831395 15.236446 13.076172 15.716797 13.076172 C 16.016226 13.076172 16.324682 12.963672 16.550781 12.765625 C 16.77688 12.567956 16.921866 12.306634 17.029297 12.005859 L 17.044922 11.974609 L 17.222656 11.207031 L 17.222656 10.941406 C 17.222656 9.7330157 16.912791 8.7350781 16.232422 8.0546875 C 15.771934 7.5942277 15.004448 7.276198 13.818359 6.8808594 C 12.640897 6.4536594 11.733262 6.2167969 11.021484 6.2167969 z M 31.609375 13.976562 L 31.054688 17.070312 L 27.009766 18.013672 L 26.884766 14.736328 C 28.770774 14.357922 30.317693 14.121545 31.609375 13.976562 z M 6.0683594 15.607422 C 5.5403979 15.607422 5.0424866 15.660556 4.5761719 15.777344 L 4.1933594 15.873047 L 4.1933594 16.265625 C 4.1933594 16.637531 4.2545567 17.032993 4.3691406 17.453125 L 4.4003906 17.556641 L 4.4667969 17.638672 C 6.5273178 20.125488 8.0892215 21.590655 9.4492188 22.015625 L 9.4707031 22.023438 L 9.5 22.03125 C 10.272257 22.19377 11.018774 22.023697 11.427734 21.462891 L 11.494141 21.375 L 11.685547 20.378906 L 11.685547 20.009766 C 11.685547 19.024178 11.34528 18.159257 10.681641 17.537109 L 10.652344 17.513672 L 10.091797 17.115234 L 10.076172 17.107422 C 8.6447865 16.210464 7.601296 15.696619 6.7539062 15.607422 L 6.7246094 15.607422 L 6.4375 15.607422 L 6.0683594 15.607422 z M 13.685547 24.082031 L 13.125 24.15625 C 12.693618 24.210297 12.310526 24.490343 12.076172 24.865234 L 12.0625 24.888672 L 7.1757812 35.039062 L 7.1601562 35.105469 C 7.1771641 35.020429 7.1415989 35.14456 7.0273438 35.296875 C 6.9131 35.44919 6.7347705 35.662359 6.4960938 35.917969 C 5.9893143 36.461011 5.6844588 36.774891 5.5429688 37.199219 L 5.4921875 37.349609 L 5.5371094 37.498047 C 5.868642 38.676806 6.401389 39.813992 7.1308594 40.908203 L 7.1308594 40.914062 L 7.1386719 40.929688 C 7.921214 42.01033 8.7622038 42.664062 9.7070312 42.664062 C 10.072239 42.664062 10.466462 42.477333 10.660156 42.154297 L 10.732422 42.037109 L 10.732422 41.896484 C 10.732422 40.721769 11.22067 37.721428 12.203125 33.089844 C 12.695883 30.749258 13.061057 28.900524 13.308594 27.539062 C 13.55613 26.177601 13.685547 25.347452 13.685547 24.867188 L 13.685547 24.082031 z M 32.113281 27.464844 L 32.40625 27.919922 L 31.410156 27.919922 L 31.410156 28.246094 L 31.654297 28.355469 C 31.79711 28.956981 32.034744 29.542546 32.664062 30.171875 L 32.664062 30.179688 L 32.671875 30.179688 C 33.037945 30.52816 33.314473 30.808076 33.498047 31 C 33.52594 31.030236 33.535157 31.041083 33.558594 31.066406 C 33.279234 31.882406 32.365146 33.103104 30.576172 34.660156 L 30.40625 34.816406 L 30.40625 35.804688 L 30.908203 35.804688 C 32.363725 35.804688 33.925296 34.691668 35.595703 33.074219 C 35.88918 33.381116 36.283531 33.805502 36.96875 34.580078 L 36.96875 34.587891 L 36.976562 34.587891 C 37.83408 35.516861 38.550061 36.186547 39.167969 36.611328 L 39.316406 36.714844 L 39.492188 36.699219 C 39.861221 36.668983 40.208472 36.413119 40.371094 36.087891 C 40.533727 35.762473 40.585937 35.383345 40.585938 34.935547 C 40.585938 33.460019 39.643298 32.09698 37.964844 30.853516 C 36.34346 29.59248 34.393339 28.462536 32.113281 27.464844 z "
       style="color:#000000;font-style:normal;font-variant:normal;font-weight:normal;font-stretch:normal;font-size:14.2882px;line-height:1.25;font-family:'cwTeX Q Kai';-inkscape-font-specification:'cwTeX Q Kai';font-variant-ligatures:normal;font-variant-position:normal;font-variant-caps:normal;font-variant-numeric:normal;font-variant-alternates:normal;font-variant-east-asian:normal;font-feature-settings:normal;font-variation-settings:normal;text-indent:0;text-align:start;text-decoration:none;text-decoration-line:none;text-decoration-style:solid;text-decoration-color:#000000;letter-spacing:0px;word-spacing:0px;text-transform:none;writing-mode:lr-tb;direction:ltr;text-orientation:mixed;dominant-baseline:auto;baseline-shift:baseline;text-anchor:start;white-space:normal;shape-padding:0;shape-margin:0;inline-size:0;clip-rule:nonzero;display:inline;overflow:visible;visibility:visible;isolation:auto;mix-blend-mode:normal;color-interpolation:sRGB;color-interpolation-filters:linearRGB;solid-color:#000000;solid-opacity:1;vector-effect:none;fill:#ae4f4f;fill-opacity:1;fill-rule:nonzero;stroke:none;stroke-width:0.999999;stroke-linecap:butt;stroke-linejoin:miter;stroke-miterlimit:4;stroke-dasharray:none;stroke-dashoffset:0;stroke-opacity:1;color-rendering:auto;image-rendering:auto;shape-rendering:auto;text-rendering:auto;enable-background:accumulate;stop-color:#000000"
       id="path2701" />
  </g>
</svg>
